X: 1
T:Unknown
M:2/4
L:1/16
K:G
|:D2G2B3B|cBAG B4|D2G2 B3G2|A2AG FED2|!
D2G2 B3B|cBAG B4|ABAG FGA2|A2G2 G3G:|!
|:C4 E4|c6 A2|ABAG FGA2| ABAG FED2|!
C4 E4|c6 Bc|d2c2 B2A2|G4 GFED:|!
